X: 33779
T: Raven's Rock, The
R: waltz
M: 3/4
K: Dmajor
dc|B{c}B AF AB|F2 ED DB|A2 FB AB|de fe dc|
B{c}B AF AB|F2 ED DF|E2 DB AF|D2- D2 dc|
B{c}B AF AB|F2 ED DB|A2 FB AB|d2 fe dc|
B{c}B AF AB|F2 ED DF|E2 DB AF|D2- D2||
dc|B2 AB df|e2 df ef|dB BA df|ef ab f2|
dB BA df|e2 df ed|B2 BA (3 Bcd|FE ED FA|
B2 BA df|(3 efe df ef|dB BA df|(3 efe ab f2|
ab fa ed|e2 ed BA|F2 FE FA|D4||

